static/img/kroki/ed6a6c8df56fb62499e1fd4a5b37b11d.svg

<?xml version="1.0" encoding="us-ascii" standalone="no"?><svg xmlns="http://www.w3.org/2000/svg" xmlns:xlink="http://www.w3.org/1999/xlink" contentStyleType="text/css" height="872px" preserveAspectRatio="none" style="width:357px;height:872px;" version="1.1" viewBox="0 0 357 872" width="357px" zoomAndPan="magnify"><defs/><g><!--class azure_network_virtual_wan--><g id="elem_azure_network_virtual_wan"><rect codeLine="23" fill="#3D176E" height="205.5703" id="azure_network_virtual_wan" rx="2.5" ry="2.5" style="stroke:#000D19;stroke-width:0.5;" width="343" x="7" y="660.14"/><ellipse cx="52.25" cy="680.0345" fill="#ADD1B2" rx="11" ry="11" style="stroke:#181818;stroke-width:1.0;"/><path d="M55.2188,685.6752 Q54.6406,685.972 54,686.1127 Q53.3594,686.2689 52.6563,686.2689 Q50.1563,686.2689 48.8281,684.6283 Q47.5156,682.972 47.5156,679.847 Q47.5156,676.722 48.8281,675.0658 Q50.1563,673.4095 52.6563,673.4095 Q53.3594,673.4095 54,673.5658 Q54.6563,673.722 55.2188,674.0189 L55.2188,676.7377 Q54.5938,676.1595 54,675.8939 Q53.4063,675.6127 52.7813,675.6127 Q51.4375,675.6127 50.75,676.6908 Q50.0625,677.7533 50.0625,679.847 Q50.0625,681.9408 50.75,683.0189 Q51.4375,684.0814 52.7813,684.0814 Q53.4063,684.0814 54,683.8158 Q54.5938,683.5345 55.2188,682.9564 L55.2188,685.6752 Z " fill="#000000"/><text fill="#D9B8FF" font-family="Helvetica" font-size="17" lengthAdjust="spacing" textLength="234" x="77.75" y="685.9198">azure_network_virtual_wan</text><line style="stroke:#000D19;stroke-width:0.5;" x1="8" x2="349" y1="699.9291" y2="699.9291"/><text fill="#D9B8FF" font-family="sans-serif" font-size="14" font-weight="bold" lengthAdjust="spacing" textLength="242" x="18" y="721.9242">allow_branch_to_branch_traffic</text><text fill="#D9B8FF" font-family="sans-serif" font-size="14" lengthAdjust="spacing" textLength="65" x="260" y="721.9242">: boolean</text><text fill="#D9B8FF" font-family="sans-serif" font-size="14" font-weight="bold" lengthAdjust="spacing" textLength="202" x="18" y="748.2211">allow_vnet_to_vnet_traffic</text><text fill="#D9B8FF" font-family="sans-serif" font-size="14" lengthAdjust="spacing" textLength="65" x="220" y="748.2211">: boolean</text><text fill="#D9B8FF" font-family="sans-serif" font-size="14" font-weight="bold" lengthAdjust="spacing" textLength="184" x="18" y="774.5179">disable_vpn_encryption</text><text fill="#D9B8FF" font-family="sans-serif" font-size="14" lengthAdjust="spacing" textLength="65" x="202" y="774.5179">: boolean</text><text fill="#D9B8FF" font-family="sans-serif" font-size="14" font-weight="bold" lengthAdjust="spacing" textLength="273" x="18" y="800.8148">office365_local_breakout_category</text><text fill="#D9B8FF" font-family="sans-serif" font-size="14" lengthAdjust="spacing" textLength="48" x="291" y="800.8148">: string</text><text fill="#D9B8FF" font-family="sans-serif" font-size="14" font-weight="bold" lengthAdjust="spacing" textLength="95" x="18" y="827.1117">virtual_hubs</text><text fill="#D9B8FF" font-family="sans-serif" font-size="14" lengthAdjust="spacing" textLength="58" x="113" y="827.1117">: string[]</text><text fill="#D9B8FF" font-family="sans-serif" font-size="14" font-weight="bold" lengthAdjust="spacing" textLength="74" x="18" y="853.4086">vpn_sites</text><text fill="#D9B8FF" font-family="sans-serif" font-size="14" lengthAdjust="spacing" textLength="58" x="92" y="853.4086">: string[]</text></g><!--class microsoft_resource--><g id="elem_microsoft_resource"><rect codeLine="31" fill="#3D176E" height="100.3828" id="microsoft_resource" rx="2.5" ry="2.5" style="stroke:#000D19;stroke-width:0.5;" width="214" x="71.5" y="438.76"/><ellipse cx="92.8" cy="458.6545" fill="#ADD1B2" rx="11" ry="11" style="stroke:#181818;stroke-width:1.0;"/><path d="M95.7688,464.2952 Q95.1906,464.592 94.55,464.7327 Q93.9094,464.8889 93.2063,464.8889 Q90.7063,464.8889 89.3781,463.2483 Q88.0656,461.592 88.0656,458.467 Q88.0656,455.342 89.3781,453.6858 Q90.7063,452.0295 93.2063,452.0295 Q93.9094,452.0295 94.55,452.1858 Q95.2063,452.342 95.7688,452.6389 L95.7688,455.3577 Q95.1438,454.7795 94.55,454.5139 Q93.9563,454.2327 93.3313,454.2327 Q91.9875,454.2327 91.3,455.3108 Q90.6125,456.3733 90.6125,458.467 Q90.6125,460.5608 91.3,461.6389 Q91.9875,462.7014 93.3313,462.7014 Q93.9563,462.7014 94.55,462.4358 Q95.1438,462.1545 95.7688,461.5764 L95.7688,464.2952 Z " fill="#000000"/><text fill="#D9B8FF" font-family="Helvetica" font-size="17" lengthAdjust="spacing" textLength="158" x="113.2" y="464.5398">microsoft_resource</text><line style="stroke:#000D19;stroke-width:0.5;" x1="72.5" x2="284.5" y1="478.5491" y2="478.5491"/><text fill="#D9B8FF" font-family="sans-serif" font-size="14" font-weight="bold" lengthAdjust="spacing" textLength="35" x="82.5" y="500.5442">etag</text><text fill="#D9B8FF" font-family="sans-serif" font-size="14" lengthAdjust="spacing" textLength="48" x="117.5" y="500.5442">: string</text><text fill="#D9B8FF" font-family="sans-serif" font-size="14" font-weight="bold" lengthAdjust="spacing" textLength="144" x="82.5" y="526.8411">provisioning_state</text><text fill="#D9B8FF" font-family="sans-serif" font-size="14" lengthAdjust="spacing" textLength="48" x="226.5" y="526.8411">: string</text></g><!--class resource--><g id="elem_resource"><rect codeLine="35" fill="#3D176E" height="310.7578" id="resource" rx="2.5" ry="2.5" style="stroke:#000D19;stroke-width:0.5;" width="227" x="65" y="7"/><ellipse cx="133.75" cy="26.8945" fill="#ADD1B2" rx="11" ry="11" style="stroke:#181818;stroke-width:1.0;"/><path d="M136.7188,32.5352 Q136.1406,32.832 135.5,32.9727 Q134.8594,33.1289 134.1563,33.1289 Q131.6563,33.1289 130.3281,31.4883 Q129.0156,29.832 129.0156,26.707 Q129.0156,23.582 130.3281,21.9258 Q131.6563,20.2695 134.1563,20.2695 Q134.8594,20.2695 135.5,20.4258 Q136.1563,20.582 136.7188,20.8789 L136.7188,23.5977 Q136.0938,23.0195 135.5,22.7539 Q134.9063,22.4727 134.2813,22.4727 Q132.9375,22.4727 132.25,23.5508 Q131.5625,24.6133 131.5625,26.707 Q131.5625,28.8008 132.25,29.8789 Q132.9375,30.9414 134.2813,30.9414 Q134.9063,30.9414 135.5,30.6758 Q136.0938,30.3945 136.7188,29.8164 L136.7188,32.5352 Z " fill="#000000"/><text fill="#D9B8FF" font-family="Helvetica" font-size="17" lengthAdjust="spacing" textLength="71" x="159.25" y="32.7798">resource</text><line style="stroke:#000D19;stroke-width:0.5;" x1="66" x2="291" y1="46.7891" y2="46.7891"/><text fill="#D9B8FF" font-family="sans-serif" font-size="14" font-weight="bold" lengthAdjust="spacing" textLength="29" x="76" y="68.7842">age</text><text fill="#D9B8FF" font-family="sans-serif" font-size="14" lengthAdjust="spacing" textLength="66" x="105" y="68.7842">: duration</text><text fill="#D9B8FF" font-family="sans-serif" font-size="14" font-weight="bold" lengthAdjust="spacing" textLength="43" x="76" y="95.0811">atime</text><text fill="#D9B8FF" font-family="sans-serif" font-size="14" lengthAdjust="spacing" textLength="70" x="119" y="95.0811">: datetime</text><text fill="#D9B8FF" font-family="sans-serif" font-size="14" font-weight="bold" lengthAdjust="spacing" textLength="43" x="76" y="121.3779">ctime</text><text fill="#D9B8FF" font-family="sans-serif" font-size="14" lengthAdjust="spacing" textLength="70" x="119" y="121.3779">: datetime</text><text fill="#D9B8FF" font-family="sans-serif" font-size="14" font-weight="bold" lengthAdjust="spacing" textLength="14" x="76" y="147.6748">id</text><text fill="#D9B8FF" font-family="sans-serif" font-size="14" lengthAdjust="spacing" textLength="48" x="90" y="147.6748">: string</text><text fill="#D9B8FF" font-family="sans-serif" font-size="14" font-weight="bold" lengthAdjust="spacing" textLength="33" x="76" y="173.9717">kind</text><text fill="#D9B8FF" font-family="sans-serif" font-size="14" lengthAdjust="spacing" textLength="48" x="109" y="173.9717">: string</text><text fill="#D9B8FF" font-family="sans-serif" font-size="14" font-weight="bold" lengthAdjust="spacing" textLength="90" x="76" y="200.2686">last_access</text><text fill="#D9B8FF" font-family="sans-serif" font-size="14" lengthAdjust="spacing" textLength="66" x="166" y="200.2686">: duration</text><text fill="#D9B8FF" font-family="sans-serif" font-size="14" font-weight="bold" lengthAdjust="spacing" textLength="90" x="76" y="226.5654">last_update</text><text fill="#D9B8FF" font-family="sans-serif" font-size="14" lengthAdjust="spacing" textLength="66" x="166" y="226.5654">: duration</text><text fill="#D9B8FF" font-family="sans-serif" font-size="14" font-weight="bold" lengthAdjust="spacing" textLength="48" x="76" y="252.8623">mtime</text><text fill="#D9B8FF" font-family="sans-serif" font-size="14" lengthAdjust="spacing" textLength="70" x="124" y="252.8623">: datetime</text><text fill="#D9B8FF" font-family="sans-serif" font-size="14" font-weight="bold" lengthAdjust="spacing" textLength="43" x="76" y="279.1592">name</text><text fill="#D9B8FF" font-family="sans-serif" font-size="14" lengthAdjust="spacing" textLength="48" x="119" y="279.1592">: string</text><text fill="#D9B8FF" font-family="sans-serif" font-size="14" font-weight="bold" lengthAdjust="spacing" textLength="34" x="76" y="305.4561">tags</text><text fill="#D9B8FF" font-family="sans-serif" font-size="14" lengthAdjust="spacing" textLength="171" x="110" y="305.4561">: dictionary[string, string]</text></g><!--reverse link microsoft_resource to azure_network_virtual_wan--><g id="link_microsoft_resource_azure_network_virtual_wan"><path codeLine="47" d="M178.5,557.52 C178.5,591.07 178.5,618.61 178.5,659.75 " fill="none" id="microsoft_resource-backto-azure_network_virtual_wan" style="stroke:#FFAF37;stroke-width:2.0;"/><polygon fill="none" points="178.5,539.52,172.5,557.52,184.5,557.52,178.5,539.52" style="stroke:#FFAF37;stroke-width:2.0;"/></g><!--reverse link resource to microsoft_resource--><g id="link_resource_microsoft_resource"><path codeLine="48" d="M178.5,336.06 C178.5,379.65 178.5,405.98 178.5,438.42 " fill="none" id="resource-backto-microsoft_resource" style="stroke:#FFAF37;stroke-width:2.0;"/><polygon fill="none" points="178.5,318.06,172.5,336.06,184.5,336.06,178.5,318.06" style="stroke:#FFAF37;stroke-width:2.0;"/></g><!--SRC=[XPDFRzim3CNl-HG6UWiM85dGfXbswG8CswKOrjsAGQ0bsX5YYmP59qYtVVT9SPBwJzAUBFFznFSeosjhCC6oadrIOfaY-v7VM5S1GvayCDDkHGLnSfDbaCqNVV4hENaNU8GIaszOR56iXZxnQstrng7toSUMz0Nq9cUgdMdQ2uFpGK8dBMfLWFSF8cpJMh0LnYpJ-opha_scDtCpMzpX02Cso4TaEfsQsRAFl6lrvjnduic-O39h7zeZ2GvY3YmEr9if8z4AEHZqf5_D-0ECiIvFRbkrdqqcTiYT-jCQ3EqYdK7XspPUa95aN-5gC1Kkxqssk0X_lmQFT3ow15vgHkLGTiGRjRKiDHHg1oxvCngFeIXefz9mO_HQ2PrN35bczNZyAKc92WHtPhUXLIIRvoNEM0zfWMfREOLEyxuIIwxBKDo6yxjRLP0EUL96s50jIeDWJhoFk0-NrUM1FgLUrwb_5Pv_HocOU2lOhVyx3bzQpUGf4yNegMQDXwbH8EyOL4nRwqFAyAgyX0mj-TIiqmBo0s9gXZXTh8WjcrhO7jUXfY_KhEbOXq_QBGGlKQ1r-Crx3WUbhimnNaifB_WuAB7JE0pTTBGwRWFUFpVQXoCJp-t2YNt-EvbChj-ZKGySTXZz1m00]--></g></svg>

<svg xmlns="http://www.w3.org/2000/svg" width="357" height="872" viewBox="0 0 357 872"><rect width="343" height="205.57" x="7" y="660.14" fill="#3D176E" rx="2.5" ry="2.5" style="stroke:#000d19;stroke-width:.5"/><circle cx="52.25" cy="680.034" r="11" fill="#ADD1B2" style="stroke:#181818;stroke-width:1"/><path d="M55.219 685.675q-.578.297-1.219.438-.64.156-1.344.156-2.5 0-3.828-1.64-1.312-1.657-1.312-4.782t1.312-4.781q1.328-1.657 3.828-1.657.703 0 1.344.157.656.156 1.219.453v2.719q-.625-.579-1.219-.844-.594-.281-1.219-.281-1.343 0-2.031 1.078-.687 1.062-.687 3.156t.687 3.172q.688 1.062 2.031 1.062.625 0 1.219-.265.594-.282 1.219-.86z"/><text x="77.75" y="685.92" fill="#D9B8FF" font-family="Helvetica" font-size="17" textLength="234">azure_network_virtual_wan</text><path d="M8 699.929h341" style="stroke:#000d19;stroke-width:.5"/><text x="18" y="721.924" fill="#D9B8FF" font-family="sans-serif" font-size="14" font-weight="bold" textLength="242">allow_branch_to_branch_traffic</text><text x="260" y="721.924" fill="#D9B8FF" font-family="sans-serif" font-size="14" textLength="65">: boolean</text><text x="18" y="748.221" fill="#D9B8FF" font-family="sans-serif" font-size="14" font-weight="bold" textLength="202">allow_vnet_to_vnet_traffic</text><text x="220" y="748.221" fill="#D9B8FF" font-family="sans-serif" font-size="14" textLength="65">: boolean</text><text x="18" y="774.518" fill="#D9B8FF" font-family="sans-serif" font-size="14" font-weight="bold" textLength="184">disable_vpn_encryption</text><text x="202" y="774.518" fill="#D9B8FF" font-family="sans-serif" font-size="14" textLength="65">: boolean</text><text x="18" y="800.815" fill="#D9B8FF" font-family="sans-serif" font-size="14" font-weight="bold" textLength="273">office365_local_breakout_category</text><text x="291" y="800.815" fill="#D9B8FF" font-family="sans-serif" font-size="14" textLength="48">: string</text><text x="18" y="827.112" fill="#D9B8FF" font-family="sans-serif" font-size="14" font-weight="bold" textLength="95">virtual_hubs</text><text x="113" y="827.112" fill="#D9B8FF" font-family="sans-serif" font-size="14" textLength="58">: string[]</text><text x="18" y="853.409" fill="#D9B8FF" font-family="sans-serif" font-size="14" font-weight="bold" textLength="74">vpn_sites</text><text x="92" y="853.409" fill="#D9B8FF" font-family="sans-serif" font-size="14" textLength="58">: string[]</text><rect width="214" height="100.383" x="71.5" y="438.76" fill="#3D176E" rx="2.5" ry="2.5" style="stroke:#000d19;stroke-width:.5"/><circle cx="92.8" cy="458.654" r="11" fill="#ADD1B2" style="stroke:#181818;stroke-width:1"/><path d="M95.769 464.295q-.578.297-1.219.438-.64.156-1.344.156-2.5 0-3.828-1.64-1.312-1.657-1.312-4.782t1.312-4.781q1.328-1.656 3.828-1.656.703 0 1.344.156.656.156 1.219.453v2.719q-.625-.579-1.219-.844-.594-.281-1.219-.281-1.344 0-2.031 1.078-.687 1.062-.687 3.156t.687 3.172q.688 1.062 2.031 1.062.625 0 1.219-.265.594-.281 1.219-.86z"/><text x="113.2" y="464.54" fill="#D9B8FF" font-family="Helvetica" font-size="17" textLength="158">microsoft_resource</text><path d="M72.5 478.549h212" style="stroke:#000d19;stroke-width:.5"/><text x="82.5" y="500.544" fill="#D9B8FF" font-family="sans-serif" font-size="14" font-weight="bold" textLength="35">etag</text><text x="117.5" y="500.544" fill="#D9B8FF" font-family="sans-serif" font-size="14" textLength="48">: string</text><text x="82.5" y="526.841" fill="#D9B8FF" font-family="sans-serif" font-size="14" font-weight="bold" textLength="144">provisioning_state</text><text x="226.5" y="526.841" fill="#D9B8FF" font-family="sans-serif" font-size="14" textLength="48">: string</text><rect width="227" height="310.758" x="65" y="7" fill="#3D176E" rx="2.5" ry="2.5" style="stroke:#000d19;stroke-width:.5"/><circle cx="133.75" cy="26.895" r="11" fill="#ADD1B2" style="stroke:#181818;stroke-width:1"/><path d="M136.719 32.535q-.578.297-1.219.438-.64.156-1.344.156-2.5 0-3.828-1.64-1.312-1.657-1.312-4.782t1.312-4.781q1.328-1.656 3.828-1.656.703 0 1.344.156.656.156 1.219.453v2.719q-.625-.578-1.219-.844-.594-.281-1.219-.281-1.344 0-2.031 1.078-.687 1.062-.687 3.156t.687 3.172q.688 1.062 2.031 1.062.625 0 1.219-.265.594-.281 1.219-.86z"/><text x="159.25" y="32.78" fill="#D9B8FF" font-family="Helvetica" font-size="17" textLength="71">resource</text><path d="M66 46.789h225" style="stroke:#000d19;stroke-width:.5"/><text x="76" y="68.784" fill="#D9B8FF" font-family="sans-serif" font-size="14" font-weight="bold" textLength="29">age</text><text x="105" y="68.784" fill="#D9B8FF" font-family="sans-serif" font-size="14" textLength="66">: duration</text><text x="76" y="95.081" fill="#D9B8FF" font-family="sans-serif" font-size="14" font-weight="bold" textLength="43">atime</text><text x="119" y="95.081" fill="#D9B8FF" font-family="sans-serif" font-size="14" textLength="70">: datetime</text><text x="76" y="121.378" fill="#D9B8FF" font-family="sans-serif" font-size="14" font-weight="bold" textLength="43">ctime</text><text x="119" y="121.378" fill="#D9B8FF" font-family="sans-serif" font-size="14" textLength="70">: datetime</text><text x="76" y="147.675" fill="#D9B8FF" font-family="sans-serif" font-size="14" font-weight="bold" textLength="14">id</text><text x="90" y="147.675" fill="#D9B8FF" font-family="sans-serif" font-size="14" textLength="48">: string</text><text x="76" y="173.972" fill="#D9B8FF" font-family="sans-serif" font-size="14" font-weight="bold" textLength="33">kind</text><text x="109" y="173.972" fill="#D9B8FF" font-family="sans-serif" font-size="14" textLength="48">: string</text><text x="76" y="200.269" fill="#D9B8FF" font-family="sans-serif" font-size="14" font-weight="bold" textLength="90">last_access</text><text x="166" y="200.269" fill="#D9B8FF" font-family="sans-serif" font-size="14" textLength="66">: duration</text><text x="76" y="226.565" fill="#D9B8FF" font-family="sans-serif" font-size="14" font-weight="bold" textLength="90">last_update</text><text x="166" y="226.565" fill="#D9B8FF" font-family="sans-serif" font-size="14" textLength="66">: duration</text><text x="76" y="252.862" fill="#D9B8FF" font-family="sans-serif" font-size="14" font-weight="bold" textLength="48">mtime</text><text x="124" y="252.862" fill="#D9B8FF" font-family="sans-serif" font-size="14" textLength="70">: datetime</text><text x="76" y="279.159" fill="#D9B8FF" font-family="sans-serif" font-size="14" font-weight="bold" textLength="43">name</text><text x="119" y="279.159" fill="#D9B8FF" font-family="sans-serif" font-size="14" textLength="48">: string</text><text x="76" y="305.456" fill="#D9B8FF" font-family="sans-serif" font-size="14" font-weight="bold" textLength="34">tags</text><text x="110" y="305.456" fill="#D9B8FF" font-family="sans-serif" font-size="14" textLength="171">: dictionary[string, string]</text><path fill="none" d="M178.5 557.52v102.23m0-120.23-6 18h12zm0-203.46v102.36m0-120.36-6 18h12z" style="stroke:#ffaf37;stroke-width:2"/></svg>
